svgs/thin/arrow-down-to-arc.svg

<svg xmlns="http://www.w3.org/2000/svg" viewBox="0 0 512 512"><!--! Font Awesome Pro 6.4.0 by @fontawesome - https://fontawesome.com License - https://fontawesome.com/license (Commercial License) Copyright 2023 Fonticons, Inc. --><path d="M256 496c132.5 0 240-107.5 240-240c0-4.4 3.6-8 8-8s8 3.6 8 8c0 141.4-114.6 256-256 256S0 397.4 0 256c0-4.4 3.6-8 8-8s8 3.6 8 8c0 132.5 107.5 240 240 240zM390.1 197.2l-128 152c-1.5 1.8-3.8 2.8-6.1 2.8s-4.6-1-6.1-2.8l-128-152c-2.8-3.4-2.4-8.4 1-11.3s8.4-2.4 11.3 1L248 322.1 248 8c0-4.4 3.6-8 8-8s8 3.6 8 8l0 314.1L377.9 186.8c2.8-3.4 7.9-3.8 11.3-1s3.8 7.9 1 11.3z"/></svg>

<svg xmlns="http://www.w3.org/2000/svg" viewBox="0 0 512 512"><!--! Font Awesome Pro 6.3.0 by @fontawesome - https://fontawesome.com License - https://fontawesome.com/license (Commercial License) Copyright 2023 Fonticons, Inc. --><path d="M256 496C388.5 496 496 388.5 496 256C496 251.6 499.6 248 504 248C508.4 248 512 251.6 512 256C512 397.4 397.4 512 256 512C114.6 512 0 397.4 0 256C0 251.6 3.582 248 8 248C12.42 248 16 251.6 16 256C16 388.5 123.5 496 256 496zM262.1 349.2C260.6 350.1 258.4 352 256 352C253.6 352 251.4 350.1 249.9 349.2L121.9 197.2C119 193.8 119.5 188.7 122.8 185.9C126.2 183 131.3 183.5 134.1 186.8L247.1 322.1V8C247.1 3.582 251.6 0 255.1 0C260.4 0 264 3.582 264 8V322.1L377.9 186.8C380.7 183.5 385.8 183 389.2 185.9C392.5 188.7 392.1 193.8 390.1 197.2L262.1 349.2z"/></svg>
